%
(Header)
(Generated by gcodetools from Inkscape.)
(Using default header. To add your own header create file "header" in the output dir.)
M3
(Header end.)
G21 (All units in mm)

(Start cutting path id: path17)
(Change tool to Graffiti)
(Add G00 here to change sprayer if needed)
G00 Z5.000000
G00 X10.814844 Y0.000000
M03 S1(Turn spray on)
 
G01 Z-1.000000 F100.0(Penetrate)
G01 X-0.000000 Y0.000000 Z-1.000000 F400.000000
G01 X-0.000000 Y16.415190 Z-1.000000
G01 X10.814844 Y16.415190 Z-1.000000
G01 X10.814844 Y14.474910 Z-1.000000
G01 X2.182812 Y14.474910 Z-1.000000
G01 X2.182812 Y9.977000 Z-1.000000
G01 X10.814844 Y9.977000 Z-1.000000
G01 X10.814844 Y8.036720 Z-1.000000
G01 X2.182812 Y8.036720 Z-1.000000
G01 X2.182812 Y1.940280 Z-1.000000
G01 X10.814844 Y1.940280 Z-1.000000
G01 X10.814844 Y0.000000 Z-1.000000
G00 Z5.000000
M05 (Turn spray off)
 
(End cutting path id: path17)


(Footer)
M5
G00 X0.0000 Y0.0000
M2
(Using default footer. To add your own footer create file "footer" in the output dir.)
(end)
%